X:1
T:New Century -- Hornpipe
Z:Bob Puckette <bpuckette:msn.com> 2003-3-10
R:hornpipe
B:Cole's 1000 Fiddle Tunes
M:2/4
L:1/16
K:D
(uAG)|(FA).D2 .D2(EF)|.G2.E2 .E2(AG)|FAGB AcBG|FDGF .E2(AG)|
(FA).D2 .D2(EF)|.G2.E2 .E2(GA)| BGBd cAce|d2d2d2:|
|:(uag)|fdfa fdfa|eceg eceg|fdfa fdfa|fdgf .e2(ag)|
fdfa fdfa|eceg eceg|edcB AGFE|D2D2D2:|
